X:4220
L:1/8
Q:1/8=140
M:4/4
K:A
 ed | ceAc EACE | [AA,]Ece a2 ba | gbeg BeGB | EBeg b2 ed | ceAc EACE | [AA,]Ece a2 ba | 
 gbeg fa^df | e2 e2 e2 :| de | fdAF Adfa | ecAE Acea | gBEG Bdeg | bagf ecde | fdAF Adfa | 
 ecae Acea | gebg edBe |1 a2 a2 a2 :|2 .a2 .a2 a4- | a8 |]

